packages/katcn/src/icons/svg/downloads-solid.svg

<svg width="24" height="25" viewBox="0 0 24 25" fill="none" xmlns="http://www.w3.org/2000/svg">
<path d="M12.8629 5.98809L11.2386 4.38809C10.5279 3.68809 9.61421 3.28809 8.70051 3.28809H4.74112C3.21827 3.28809 2 4.48809 2 5.98809V18.4881C2 20.0881 3.21827 21.2881 4.74112 21.2881H19.2589C20.7817 21.2881 22 20.0881 22 18.5881V8.78809C22 7.28809 20.7817 6.08809 19.2589 6.08809H12.8629V5.98809Z" fill="black"/>
<path d="M15.1 13.8881C14.8 13.4881 14.1 13.3881 13.7 13.6881L12.9 14.3881V11.5881C12.9 10.9881 12.5 10.5881 11.9 10.5881C11.3 10.5881 10.9 10.9881 10.9 11.5881V14.3881L10 13.6881C9.6 13.3881 9 13.4881 8.6 13.8881C8.3 14.2881 8.3 14.9881 8.8 15.2881L11.3 17.2881L11.4 17.3881C11.4 17.3881 11.5 17.3881 11.5 17.4881C11.6 17.5881 11.8 17.5881 11.9 17.5881C12 17.5881 12.2 17.5881 12.3 17.4881L12.4 17.3881C12.4 17.3881 12.4 17.3881 12.5 17.3881L15 15.3881C15.4 14.9881 15.4 14.2881 15.1 13.8881Z" fill="white"/>
</svg>

<svg xmlns="http://www.w3.org/2000/svg" fill="none" viewBox="0 0 24 25"><path fill="#000" d="m12.863 5.988-1.624-1.6c-.711-.7-1.625-1.1-2.538-1.1H4.74c-1.522 0-2.74 1.2-2.74 2.7v12.5c0 1.6 1.218 2.8 2.741 2.8H19.26c1.523 0 2.741-1.2 2.741-2.7v-9.8c0-1.5-1.218-2.7-2.741-2.7h-6.396z"/><path fill="#fff" d="M15.1 13.888c-.3-.4-1-.5-1.4-.2l-.8.7v-2.8c0-.6-.4-1-1-1s-1 .4-1 1v2.8l-.9-.7c-.4-.3-1-.2-1.4.2-.3.4-.3 1.1.2 1.4l2.5 2 .1.1s.1 0 .1.1c.1.1.3.1.4.1s.3 0 .4-.1l.1-.1h.1l2.5-2c.4-.4.4-1.1.1-1.5"/></svg>
